!!!COA: Josquin des Prez
!!!CDT: ~1450-1521/08/27
!!!OTL@@FRA: La belle se siet
!!!AGN: Chanson
!!!SCT: NJE 27.20
!!!SCA: New Josquin Edition 27.20
!!!voices: 3
**kern	**kern	**kern
*staff3	*staff2	*staff1
*Ivox	*Ivox	*Ivox
*I"Contra	*I"Tenor	*I"Discantus
*I'C	*I'T	*I'D
*>[A,B]	*>[A,B]	*>[A,B]
*>Part1[A]	*>Part1[A]	*>Part1[A]
*>Part2[B]	*>Part2[B]	*>Part2[B]
*clefF4	*clefF4	*clefF4
*>A	*>A	*>A
*k[b-]	*k[b-]	*k[b-]
*M2/1	*M2/1	*M2/1
*met(C|)	*met(C|)	*met(C|)
=1-	=1-	=1-
1F	0F	0r
2F\	.	.
[2F\	.	.
=2	=2	=2
2F\]	1F	0r
4E\	.	.
4D\	.	.
4C/	[1G	.
4BB-/	.	.
[2C/	.	.
=3	=3	=3
2C/]	1G]	0r
4BB-/	.	.
4AA/	.	.
4GG/	1G	.
4FF/	.	.
2GG/	.	.
=4	=4	=4
2FF/	2.A\	0F
2.F\	.	.
.	4G\	.
.	4F\	.
4G\	4E\	.
[2A\	[2F\	.
=5	=5	=5
2A\]	2F\]	1F
4G\	4E\	.
4F\	4D\	.
4E\	4C/	[1G
4D\	4BB-/	.
[2E\	[2C/	.
=6	=6	=6
4E\]	2C/]	1G]
4C/	.	.
1F	4BB-/	.
.	4AA/	.
.	4GG/	1G
.	4FF/	.
2E\	2GG/	.
=7	=7	=7
1F	4FF/	0A
.	4GG/	.
.	4AA/	.
.	4BB-/	.
1r	2C/	.
.	[2D\	.
=8	=8	=8
0FF	2D\]	2.F\
.	4C/	.
.	4BB-/	4G\
.	2AA/	4A\
.	.	4B-\
.	[2F\	[2c\
=9	=9	=9
1FF	2F\]	2c\]
.	2F\	4B-\
.	.	4A\
[1GG	2D\	2.B-\
.	[2G\	.
.	.	4c\
=10	=10	=10
1GG]	2G\]	2d\
.	4F\	1c
.	4E\	.
1GG	1D	.
.	.	2Bni\
=11	=11	=11
0AA	1C	1c
.	1F	1r
=12	=12	=12
0C	0E	1G
.	.	[1A
=13	=13	=13
1.D	0r	2A\]
.	.	1F
[2BB-/	.	4E\
.	.	4D\
=14	=14	=14
2BB-/]	1r	2D\
4AA/	.	1G
4GG/	.	.
1AA	1C	.
.	.	2F#i\
=15	=15	=15
4GG/	1.D	1G
4AA/	.	.
4BB-/	.	.
4C/	.	.
4D\	.	1r
4E\	.	.
4F\	[2BB-/	.
4G\	.	.
=16	=16	=16
4F\	2BB-/]	1r
4D\	.	.
1G	4AA/	.
.	4GG/	.
.	1AA	1C
2F#i\	.	.
=17	=17	=17
1G	4GG/	1.D
.	4AA/	.
.	4BB-/	.
.	4C/	.
1r	4D\	.
.	4E\	.
.	4F\	[2BB-/
.	4G\	.
=18	=18	=18
1r	4F\	2BB-/]
.	4D\	.
.	1G	4AA/
.	.	4GG/
1C	.	1AA
.	2F#i\	.
=19	=19	=19
1.D	1G	4GG/
.	.	4AA/
.	.	4BB-/
.	.	4C/
.	1r	4D\
.	.	4E\
[2BB-/	.	4F\
.	.	4G\
=20	=20	=20
2BB-/]	1BB-	4F\
.	.	4D\
4AA/	.	1G
4GG/	.	.
1AA	1C	.
.	.	2F#i\
=21	=21	=21
0GG	1D	1G
.	1E-	2.G\
.	.	4G\
=22	=22	=22
2.GG/	1D	2G\
.	.	2G\
4GG/	.	.
2GG/	2.D\	2G\
2GG/	.	2G\
.	4D\	.
=23	=23	=23
2GG/	2D\	2G\
2GG/	2D\	2G\
2GG/	2D\	1B-
2GG/	2D\	.
=24	=24	=24
1BB-	2D\	2B-\
.	2D\	2.F\
2BB-/	1F	.
.	.	4G\
[2FF/	.	4A\
.	.	4B-\
=25	=25	=25
4FF/]	2F\	2c\
4GG/	.	.
4AA/	2.C/	2c\
4BB-/	.	.
2C/	.	2.G\
.	4D\	.
2C/	4E\	.
.	4F\	4A\
=26	=26	=26
2.GG/	2G\	4B-\
.	.	4c\
.	2G\	1d
4AA/	.	.
4BB-/	2.D\	.
4C/	.	.
[2D\	.	4c\
.	4E\	4B-\
=27	=27	=27
2D\]	4F\	2.A\
.	4G\	.
4C/	1A	.
4BB-/	.	4B-\
2.AA/	.	1c
.	4G\	.
4BB-/	4F\	.
=28	=28	=28
1C	2.E\	2.G\
.	4F\	4A\
2.GG/	1G	2.B-\
4AA/	.	4A\
=29	=29	=29
2.BB-/	2.D\	2F\
.	.	2B-\
4AA/	4E\	.
2FF/	2.F\	2A\
2BB-/	.	4D\
.	4E\	4E\
=30	=30	=30
4AA/	4C/	4F\
4BB-/	4D\	4G\
4C/	4E\	4A\
4AA/	4C/	4F\
4BB-/	4D\	2G\
4AA/	4C/	.
4GG/	[2C/	[2F\
4FF/	.	.
=31	=31	=31
1GG	2C/]	2F\]
.	2BB-/	2E\
[1FF	[1C	1F
=32	=32	=32
1FF]	1C]	2r
.	.	2F\
1r	2r	2.F\
.	2BB-/	.
.	.	4F\
=33	=33	=33
0r	2.BB-/	2F\
.	.	2F\
.	4BB-/	.
.	2BB-/	2G\
.	2BB-/	2G\
=34	=34	=34
0r	2C/	2G\
.	2C/	2G\
.	2C/	2G\
.	2C/	2G\
=35	=35	=35
1FF	2C/	2A\
.	2C/	2.F\
2FF/	4D\	.
.	4E\	4E\
2FF/	4F\	2D\
.	4G\	.
=36	=36	=36
2FF/	4A\	1C
.	4B-\	.
2FF/	4c\	.
.	4A\	.
2GG/	4B-\	2BB-/
.	4A\	.
2GG/	4B-\	[2G\
.	4c\	.
=37	=37	=37
2GG/	2d\	4G\]
.	.	4F\
2GG/	1c	2E\
2GG/	.	1D
2GG/	2Bni\	.
=38	=38	=38
[0AA	[0c	2C/
.	.	2.A\
.	.	4G\
.	.	2F\
=39	=39	=39
0AA_	1c]	2E\
.	.	2F\
.	2r	1C
.	2c\	.
=40	=40	=40
0AA]	2A\	2r
.	2.c\	2C/
.	.	2AA/
.	4B-\	.
.	4A\	[2C/
.	4G\	.
=41	=41	=41
0C	4A\	4C/]
.	4G\	4BB-/
.	1G	4AA/
.	.	4GG/
.	.	1AA
.	2F#i\	.
=42	=42	=42
1D	2G\	4GG/
.	.	4AA/
.	2.F\	4BB-/
.	.	4C/
1BB-	.	4D\
.	4E\	4E\
.	[2D\	4F\
.	.	4G\
=43	=43	=43
0AA	2D\]	2A\
.	4C/	1G
.	4BB-/	.
.	1C	.
.	.	2F#i\
=44	=44	=44
0GG	1D	[0G
.	2D\	.
.	[2D\	.
=45	=45	=45
2GG/	2D\]	1G]
1GG	2D\	.
.	1D	2G\
2GG/	.	[2G\
=46	=46	=46
1GG	2r	2G\]
.	2D\	2G\
2r	2.G\	1G
2GG/	.	.
.	4F\	.
=47	=47	=47
2.C/	2.E\	2r
.	.	2G\
4BB-/	4D\	.
2.AA/	1C	2.c\
4GG/	.	4B-\
=48	=48	=48
1FF	2.F\	2.A\
.	4E\	4G\
[1BB-	4D\	2F\
.	4C/	.
.	[2D\	2B-\
=49	=49	=49
1BB-]	2D\]	4G\
.	.	4A\
.	2BB-/	4B-\
.	.	4G\
2AA/	2C/	2A\
[2BB-/	[2D\	[2G\
=50	=50	=50
4BB-/]	4D\]	4G\]
4AA/	4C/	4F\
4GG/	1C	1F
4FF/	.	.
1GG	.	.
.	2BB-/	2E\
=51	=51	=51
2FF/	1C	1F
2FF/	.	.
2C/	2r	1r
2C/	2G\	.
=52	=52	=52
2AA/	2c\	2r
2AA/	2c\	2A\
[1FF	2A\	2c\
.	2A\	2c\
=53	=53	=53
1FF]	1F	2A\
.	.	2A\
[1BB-	2r	1F
.	2D\	.
=54	=54	=54
1BB-]	2D\	2r
.	2BB-/	1F
2AA/	2C/	.
[2BB-/	[2D\	2F\
=55	=55	=55
4BB-/]	4D\]	1G
4AA/	4C/	.
4GG/	1F	.
4FF/	.	.
1GG	.	1B-
.	2E\	.
=56	=56	=56
2.FF/	[0Fl	2.A\
4GG/	.	4G\
2AA/	.	4F\
.	.	4E\
[2BB-/	.	[2D\
=57	=57	=57
2BB-/]	0F_	2D\]
4AA/	.	4C/
4GG/	.	4BB-/
2BB-/	.	2D\
2FF/	.	2C/
=58	=58	=58
0FFl	0F]	0Cl
!!LO:LB:g=z
=59||	=59||	=59||
*>B	*>B	*>B
!!section: Je ny veultz mary
!!!OMD: Je ny veultz mary
0r	1.G	0r
.	2G\	.
=60	=60	=60
1.C	1G	0r
.	1A	.
2C/	.	.
=61	=61	=61
1C	2G\	0r
.	4F\	.
.	4E\	.
1D	1F	.
=62	=62	=62
2C/	2E\	0r
4BB-/	1A	.
4AA/	.	.
1BB-	.	.
.	2G\	.
=63	=63	=63
0AA	2A\	[0c
.	2F\	.
.	2E\	.
.	[2F\	.
=64	=64	=64
1F	2F\]	0c]
.	4E\	.
.	4D\	.
2E\	2C/	.
[2F\	[2A\	.
=65	=65	=65
2F\]	2A\]	[0c
4E\	4G\	.
4D\	4F\	.
2C/	2E\	.
[2A\	2F\	.
=66	=66	=66
2A\]	1C	0c]
4G\	.	.
4F\	.	.
2E\	2r	.
2F\	2F\	.
=67	=67	=67
1C	2.G\	[0c
.	8F\L	.
.	8G\J	.
2r	2.A\	.
[2F\	.	.
.	4G\	.
=68	=68	=68
2F\]	4A\	0c]
.	4F\	.
4E\	1B-	.
4D\	.	.
1C	.	.
.	2A\	.
=69	=69	=69
1BB-	2B-\	[0d
.	2B-\	.
2r	2.G\	.
2BB-/	.	.
.	4A\	.
=70	=70	=70
2.GG/	2B-\	0d_
.	2BB-/	.
4AA/	.	.
2BB-/	2.GG/	.
2B-\	.	.
.	4AA/	.
=71	=71	=71
2.G\	2BB-/	0d_
.	2B-\	.
4A\	.	.
2B-\	2.G\	.
2BB-/	.	.
.	4A\	.
=72	=72	=72
2GG/	2B-\	0d]
2AA/	1A	.
1BB-	.	.
.	2G\	.
=73	=73	=73
1AA	2A\	[0c
.	4AA/	.
.	4BB-/	.
2r	4C/	.
.	4D\	.
[2AA/	4E\	.
.	4F\	.
=74	=74	=74
2AA/]	4E\	1c]
.	4C/	.
4GG/	2.F\	.
4FF/	.	.
1GG	.	1B-
.	8E\L	.
.	8D\J	.
.	2E\	.
=75	=75	=75
2FF/	2F\	1A
2.F\	2.D\	.
.	.	2A\
8E\L	8C/L	.
8D\J	8BB-/J	.
2E\	2C/	[2A\
=76	=76	=76
2F\	1D	2A\]
2.D\	.	2A\
.	1AA	[1A
8C/L	.	.
8BB-/J	.	.
2C/	.	.
=77	=77	=77
1D	2r	1A]
.	1F	.
1AA	.	[1c
.	2E\	.
=78	=78	=78
2r	1F	0c]
1F	.	.
.	2r	.
2E\	2C/	.
=79	=79	=79
2F\	2AA/	[0c
2C/	2FF/	.
2AA/	1C	.
2FF/	.	.
=80	=80	=80
1C	2FF/	1c]
.	2.C/	.
2FF/	.	[1c
.	4D\	.
[2C/	4E\	.
.	4F\	.
=81	=81	=81
4C/]	2G\	0c]
4D\	.	.
4E\	1.C	.
4F\	.	.
2G\	.	.
[2A\	.	.
=82	=82	=82
2A\]	1BB-	1d
1G	.	.
.	2AA/	1c
[2F\	4GG/	.
.	4FF/	.
=83	=83	=83
2F\]	1GG	1B-
2E\	.	.
2F\	2FF/	1A
2D\	2F\	.
=84	=84	=84
2C/	2E\	2A\
2D\	1D	1A
1AA	.	.
.	2C/	2A\
=85	=85	=85
2r	2D\	1A
2D\	1F	.
[1F	.	2r
.	4E\	2A\
.	4D\	.
=86	=86	=86
1F]	1A	0c
2E\	1r	.
[2F\	.	.
=87	=87	=87
2F\]	0r	1d
4E\	.	.
4D\	.	.
2E\	.	1c
2C/	.	.
=88	=88	=88
2D\	1r	1B-
2E\	.	.
2F\	2r	2A\
2D\	2F\	[2B-\
=89	=89	=89
1C	1c	4B-\]
.	.	4A\
.	.	1A
1BB-	1d	.
.	.	2G\
=90	=90	=90
2AA/	1c	2E\
2FF/	.	2F\
4GG/	1B-	4D\
4AA/	.	4C/
4BB-/	.	4D\
4C/	.	4E\
=91	=91	=91
4D\	2A\	4F\
4E\	.	4G\
2.D\	2.B-\	2.F\
4C/	4A\	4E\
4BB-/	[2A\	[2E\
4AA/	.	.
=92	=92	=92
1BB-	2A\]	2E\]
.	2G\	2D\
1AA	[1A	2E\
.	.	2A\
=93	=93	=93
1AA	1A]	2.c\
.	.	4B-\
2.C/	1r	4A\
.	.	4G\
.	.	[2A\
4BB-/	.	.
=94	=94	=94
4AA/	1A	2A\]
4GG/	.	.
1AA	.	4G\
.	.	4F\
.	1c	2E\
4GG/	.	[2F\
4FF/	.	.
=95	=95	=95
1C	2.c\	2F\]
.	.	2E\
.	4B-\	.
1FF	4A\	[1F
.	4G\	.
.	[2A\	.
=96	=96	=96
1AA	2A\]	1F]
.	4G\	.
.	4F\	.
[1GG	2E\	1G
.	[2F\	.
=97	=97	=97
1GG]	2F\]	1B-
.	2E\	.
[1FF	2F\	[1A
.	2C/	.
=98	=98	=98
1FF]	2D\	1A]
.	2F\	.
1GG	2E\	1G
.	[2D\	.
=99	=99	=99
1BB-	4D\]	1F
.	4E\	.
.	4F\	.
.	4G\	.
[1AA	2A\	2r
.	[2G\	2C/
=100	=100	=100
1AA]	2G\]	2.C/
.	2F#i\	.
.	.	4D\
[1GG	[1G	2E\
.	.	[2D\
=101	=101	=101
1GG]	1G]	2D\]
.	.	1G
[1BB-	1D	.
.	.	2F\
=102	=102	=102
1BB-]	2GG/	2G\
.	2D\	1F
[1AA	[1C	.
.	.	2E\
=103	=103	=103
1AA]	1C]	2F\
.	.	1E
[1GG	1BB-	.
.	.	2D\
=104	=104	=104
0GG_	2r	2E\
.	2.BB-/	2.D\
.	4C/	4C/
.	2D\	[2F\
=105	=105	=105
1GG]	1BB-	2F\]
.	.	2E\
[1FF	1C	1F
=106	=106	=106
1FF]	2r	1C
.	2F\	.
1r	2F\	2r
.	2F\	2BB-/
=107	=107	=107
0r	2F\	2BB-/
.	2F\	2BB-/
.	2G\	2BB-/
.	2G\	2BB-/
=108	=108	=108
0r	2G\	2C/
.	2G\	2C/
.	2G\	2C/
.	2G\	2C/
=109	=109	=109
1FF	2A\	2C/
.	2.F\	2C/
2FF/	.	4D\
.	4E\	4E\
2FF/	2D\	4F\
.	.	4G\
=110	=110	=110
2FF/	1C	4A\
.	.	4B-\
2FF/	.	4c\
.	.	4A\
2GG/	2BB-/	4B-\
.	.	4A\
2GG/	[2G\	4B-\
.	.	4c\
=111	=111	=111
2GG/	4G\]	2d\
.	4F\	.
2GG/	2E\	1c
2GG/	1D	.
2GG/	.	2Bni\
=112	=112	=112
[0AA	1C	2c\
.	.	2.A\
.	2r	.
.	.	4G\
.	[2A\	2F\
=113	=113	=113
0AA_	4A\]	2E\
.	4G\	.
.	2F\	2F\
.	2E\	2C/
.	2F\	[2A\
=114	=114	=114
0AA_	2C/	4A\]
.	.	4G\
.	2.A\	2F\
.	.	2E\
.	4G\	.
.	2F\	2F\
=115	=115	=115
0AA]	2E\	2C/
.	2F\	2.A\
.	2C/	.
.	.	4G\
.	[2A\	2F\
=116	=116	=116
0C	2A\]	2E\
.	4G\	1F
.	4F\	.
.	1G	.
.	.	2E\
=117	=117	=117
[0D	2F\	1F
.	2B-\	.
.	2.A\	1r
.	8G\L	.
.	8A\J	.
=118	=118	=118
0D]	2B-\	1r
.	2.A\	.
.	.	2r
.	4G\	.
.	[2G\	2B-\
=119	=119	=119
1D	2G\]	2.A\
.	2F\	.
.	.	8G\L
.	.	8A\J
2BB-/	2G\	2B-\
[2C/	[2E\	[2A\
=120	=120	=120
4C/]	4E\]	4A\]
4BB-/	4D\	4G\
4AA/	1D	1G
4GG/	.	.
1AA	.	.
.	2C/	2F#i\
=121	=121	=121
0GG	[0D	1G
.	.	2G\
.	.	[2G\
=122	=122	=122
2GG/	1D]	2G\]
1GG	.	2G\
.	2D\	1G
2GG/	[2D\	.
=123	=123	=123
1GG	2D\]	2r
.	2D\	2G\
2r	[1D	2.B-\
2GG/	.	.
.	.	4B-\
=124	=124	=124
2.BB-/	1D]	2B-\
.	.	2B-\
4BB-/	.	.
2BB-/	2r	1F
2BB-/	2D\	.
=125	=125	=125
1FF	2.F\	2r
.	.	2A\
.	4F\	.
1BB-	2F\	2.B-\
.	2F\	.
.	.	8A\L
.	.	8G\J
=126	=126	=126
4AA/	1C	2A\
4FF/	.	.
2C/	.	2.G\
4BB-/	2r	.
4AA/	.	4F\
4GG/	2A\	[2F\
4FF/	.	.
=127	=127	=127
1GG	2.B-\	2F\]
.	.	2E\
.	8A\L	.
.	8G\J	.
2FF/	2A\	2F\
2C/	[2G\	2E\
=128	=128	=128
2D\	2G\]	2A\
2A\	1F	2F\
2.B-\	.	1G
.	2E\	.
8A\L	.	.
8G\J	.	.
=129	=129	=129
2A\	2F\	2F\
2.G\	2E\	2C/
.	2A\	1D
4F\	.	.
[2F\	2F\	.
=130	=130	=130
2F\]	1G	1C
2E\	.	.
1F	[1F	1r
=131	=131	=131
1r	1F]	1c
1FF	2r	2c\
.	2F\	2c\
=132	=132	=132
2FF/	2F\	2c\
2FF/	2F\	2c\
2FF/	2F\	2A\
2FF/	2F\	2A\
=133	=133	=133
1.GG	2D\	1.d
.	2D\	.
.	[1G	.
2GG/	.	2c\
=134	=134	=134
2GG/	2G\]	2B-\
2GG/	2F\	2A\
1GG	1E	2G\
.	.	[2c\
=135	=135	=135
1GG	1D	2c\]
.	.	2Bni\
[1AA	1C	[1c
=136	=136	=136
1AA]	2r	0c]
.	2E\	.
2r	1A	.
2AA/	.	.
=137	=137	=137
1D	2A\	2r
.	1F	2A\
2D\	.	1d
[2BB-/	4E\	.
.	4D\	.
=138	=138	=138
2BB-/]	1D	2d\
4AA/	.	1B-
4GG/	.	.
1GG	2D\	.
.	[2D\	4A\
.	.	4G\
=139	=139	=139
2GG/	2D\]	1G
1GG	2D\	.
.	1D	2G\
2GG/	.	[2G\
=140	=140	=140
1GG	2r	2G\]
.	2D\	2G\
2r	1G	1G
2GG/	.	.
=141	=141	=141
1C	4G\	0r
.	4F\	.
.	4E\	.
.	4D\	.
4C/	2E\	.
4BB-/	.	.
4AA/	[2F\	.
4GG/	.	.
=142	=142	=142
2AA/	4F\]	0r
.	4E\	.
2.BB-/	4D\	.
.	4C/	.
.	4D\	.
4AA/	4C/	.
4GG/	[2F\	.
4FF/	.	.
=143	=143	=143
1GG	2F\]	1G
.	2E\	.
2FF/	1F	1c
2FF/	.	.
=144	=144	=144
1F	0r	4c\
.	.	4B-\
.	.	4A\
.	.	4G\
4F\	.	2A\
4E\	.	.
4D\	.	[2F\
4C/	.	.
=145	=145	=145
2D\	0r	4F\]
.	.	4E\
2.BB-/	.	4D\
.	.	4C/
.	.	4D\
4AA/	.	4C/
4GG/	.	[2F\
4FF/	.	.
=146	=146	=146
1GG	1G	2F\]
.	.	2E\
[1FF	1c	[1Fl
=147	=147	=147
0FF_	4c\	0F_
.	4B-\	.
.	4A\	.
.	4G\	.
.	2A\	.
.	[2F\	.
=148	=148	=148
1FF]	4F\]	0F_
.	4E\	.
.	4D\	.
.	4C/	.
1FF	4D\	.
.	4C/	.
.	[2F\	.
=149	=149	=149
2BB-/	2F\]	0F]
2BB-/	4E\	.
.	4D\	.
1FFl	1Cl	.
==	==	==
*-	*-	*-
!!!RDF**kern: l=long note in original notation
!!!RDF**kern: i=editorial accidental
!!!ENC: Jesse Rodin; Victoria Chang 2011/05/30
!!!END: 2011/05/30/
!!!EED: Jesse Rodin
!!!EEV: 2011/08/09/
!!attribution-level@Jos: 4 (questionable)
!!!ONB: Translated from MusicXML and edited on 2011/08/09/ by Craig Sapp
!!muse2ps:  C^@{COM}{/}@{COA}?\n@{SCT}^v100,100,150I150Q16
